public/social-icons/linkedin.svg

<svg fill="none" height="20" viewBox="0 0 21 20" width="21" xmlns="http://www.w3.org/2000/svg" xmlns:xlink="http://www.w3.org/1999/xlink"><clipPath id="a"><path d="m0 0h21v20h-21z"/></clipPath><g clip-path="url(#a)"><path d="m18.667 0c1.2885.00016786 2.333.99546 2.333 2.22266v15.55464c0 1.2272-1.0445 2.2225-2.333 2.2227h-16.33399c-1.28852-.0002-2.33301-.9955-2.33301-2.2227v-15.55464c0-1.2272 1.04449-2.22249251 2.33301-2.22266zm-15.44923 17.2227h3.13184v-9.62993h-3.13184zm11.18553-9.92387c-2.1399 0-3.044 1.58233-3.0488 1.59082v-1.29688h-3.00294v9.62993h3.00294v-5.0557c.0001-1.3543.6553-2.1602 1.9082-2.1602 1.1514.0002 1.704.7746 1.7041 2.1602v5.0557h3.1162v-6.0977c-.0001-2.57935-1.5352-3.82614-3.6797-3.82617zm-9.63475-4.52051c-1.02292 0-1.85151.79512-1.85156 1.77637 0 .98129.82861 1.77734 1.85156 1.77734 1.02296 0 1.85157-.79605 1.85157-1.77734-.00005-.98125-.82864-1.77637-1.85157-1.77637z" fill="#fff"/></g></svg>

<svg width="21" height="20" viewBox="0 0 21 20" fill="none" xmlns="http://www.w3.org/2000/svg"><g clip-path="url(#clip0_2086_53)"><path d="M18.667 0C19.9555 0.000167858 21 0.99546 21 2.22266V17.7773C21 19.0045 19.9555 19.9998 18.667 20H2.33301C1.04449 19.9998 0 19.0045 0 17.7773V2.22266C0 0.99546 1.04449 0.000167489 2.33301 0H18.667ZM3.21777 17.2227H6.34961V7.59277H3.21777V17.2227ZM14.4033 7.29883C12.2634 7.29883 11.3593 8.88116 11.3545 8.88965V7.59277H8.35156V17.2227H11.3545V12.167C11.3546 10.8127 12.0098 10.0068 13.2627 10.0068C14.4141 10.007 14.9667 10.7814 14.9668 12.167V17.2227H18.083V11.125C18.0829 8.54565 16.5478 7.29886 14.4033 7.29883ZM4.76855 2.77832C3.74563 2.77832 2.91704 3.57344 2.91699 4.55469C2.91699 5.53598 3.7456 6.33203 4.76855 6.33203C5.79151 6.33203 6.62012 5.53598 6.62012 4.55469C6.62007 3.57344 5.79148 2.77832 4.76855 2.77832Z" fill="white"/></g><defs><clipPath id="clip0_2086_53"><rect width="21" height="20" fill="white"/></clipPath></defs></svg>
